!!!!SEGMENT: pl-kk--kk-i-2--009_terzago-bernardino--sancte-sebastiane.krn
!!!cenid: 16xx:1614
!!!COM: Terzago, Bernardino
!!!COM-rismid: pe30097376
!!!CDT:
!!!CNT: Italian
!!!OTL: Sancte Sebastiane
!!!PDT: 1624
!!!AGN: Sacred
!!!SMS-siglum: PL-Kk
!!!SMS-shelfmark: Kk.I.2
!!!SMS-shelfwork: 009 W
!!!NIFC-rismid: 300258025
!!!URL-scan: http://repozytorium.nifc.pl/skany/pl-kk-nut--i-2
!!!ONB-nifc: skany: C: 0025; A: 0125; T: 0229; B: 0327;
**kern	**text	**kern	**text	**kern	**text	**kern	**text
*part4	*part4	*part3	*part3	*part2	*part2	*part1	*part1
*staff4	*staff4	*staff3	*staff3	*staff2	*staff2	*staff1	*staff1
*Iempty	*	*Itenor	*	*Iempty	*	*Iempty	*
*I"BASVS	*	*I"TENOR	*	*I"ALTVS	*	*I"DISCANTVS	*
*I'B	*	*I'T	*	*I'A	*	*I'S	*
*clefF4	*	*clefC4	*	*clefC4	*	*clefC3	*
*k[b-]	*	*k[b-]	*	*k[b-]	*	*k[b-]	*
*F:	*	*F:	*	*F:	*	*F:	*
*M2/1	*	*M2/1	*	*M2/1	*	*M2/1	*
*met(c|)	*	*met(c|)	*	*met(c|)	*	*met(c|)	*
=1	=1	=1	=1	=1	=1	=1	=1
!LO:TX:b:t=Bernardin(um) Ter3agg Ro\nman(um) fecit 18 January\nI624.	!	!	!	!	!	!	!
!	!	!	!	!	!	!LO:TX:t=P:problem: kreska pseudotaktowa	!
!	!	!	!	!	!	!LO:TX:t=P:problem: znak kreski taktowej w źródle	!
0r	.	1F	SAn-	0r	.	1r	.
*	*	*lig	*	*	*	*	*
.	.	1A	.	.	.	1F	SAn-
=2	=2	=2	=2	=2	=2	=2	=2
!LO:TX:t=P:problem: znak kreski taktowej w źródle	!	!	!	!	!	!	!
1r	.	1c	.	1F	SAn-	1A	.
*	*	*Xlig	*	*	*	*	*
!	!	!LO:TX:t=P:problem: znak kreski taktowej w źródle	!	!	!	!	!
*	*	*	*	*lig	*	*	*
1FF	SAn-	1c	-cte	1A	.	[1c	.
=3	=3	=3	=3	=3	=3	=3	=3
*lig	*	*	*	*	*	*2\right	*
1AA	.	1c	Se-	1c	.	2c\]	.
.	.	.	.	.	.	2f\	-cte
!	!	!	!	!	!	!LO:TX:t=P:problem: znak kreski taktowej w źródle	!
*	*	*	*	*Xlig	*	*	*
!LO:TX:t=P:problem: znak kreski taktowej w źródle	!	!	!	!LO:TX:t=P:problem: znak kreski taktowej w źródle	!	!	!
1C	.	1A	-ba-	1c	-cte	2e\	Se-
.	.	.	.	.	.	[2f\	-ba-
*Xlig	*	*	*	*	*	*	*
=4	=4	=4	=4	=4	=4	=4	=4
*2\right	*	*	*	*	*	*	*
2C/	-cte	1G	-ſti-	1c	Se-	2f\]	.
*	*	*	*	*	*	*4\right	*
1C	Se-	.	.	.	.	4e\	.
!	!	!	!	!	!	!LO:TX:t=P:problem: znak kreski taktowej w źródle	!
.	.	.	.	.	.	4d\	.
*	*	*lig	*	*	*	*	*
.	.	1c	-a-	1A	-ba-	2e\	-ſti-
[2F\	-ba-	.	.	.	.	[2f\	.
=5	=5	=5	=5	=5	=5	=5	=5
2F\]	.	1d	.	1D	-ſti-	4f\]	.
.	.	.	.	.	.	4g\	.
2D/	-ſti-	.	.	.	.	4a\	.
!	!	!	!	!	!	!LO:TX:t=P:problem: znak kreski taktowej w źródle	!
.	.	.	.	.	.	4f\	.
!LO:TX:t=P:problem: znak kreski taktowej w źródle	!	!	!	!	!	!LO:TX:t=P:problem: znak kreski taktowej w źródle	!
*lig	*	*Xlig	*	*4\right	*	*lig	*
*	*	*	*	*	*	*col	*
1E-X	-a-	1c	.	4G/	-a-	1g	-a-
.	.	.	.	4A/	.	.	.
*	*	*	*	*2\right	*	*	*
.	.	.	.	[2B-\	.	.	.
!!pagebreak:original
=6	=6	=6	=6	=6	=6	=6	=6
!	!	!LO:TX:t=P:problem: znak kreski taktowej w źródle	!	!	!	!	!
1F	.	1c	-ne	2B-\]	.	2.f\	.
.	.	.	.	2A/	.	.	.
*Xlig	*	*	*	*	*	*Xlig	*
!	!	!	!	!LO:TX:t=P:problem: znak kreski taktowej w źródle	!	!	!
*	*	*	*	*	*	*Xcol	*
!	!	!	!	!	!	!LO:TX:t=P:problem: znak kreski taktowej w źródle	!
.	.	.	.	.	.	4e\	.
[1BB-	.	1f	ma-	2B-\	-ne	4d\	.
.	.	.	.	.	.	4c/	.
.	.	.	.	[2B-\	ma-	2d\	.
=7	=7	=7	=7	=7	=7	=7	=7
!	!	!LO:TX:t=P:problem: znak kreski taktowej w źródle	!	!	!	!	!
*	*	*	*	*	*	*lig	*
1BB-]	.	1d	-gna	4B-\]	.	1d	-ne
.	.	.	.	4B-\	-gna	.	.
!	!	!	!	!LO:TX:t=P:problem: znak kreski taktowej w źródle	!	!	!
.	.	.	.	2B-\	e(ſt)	.	.
!LO:TX:t=P:problem: znak kreski taktowej w źródle	!	!LO:TX:t=P:problem: znak kreski taktowej w źródle	!	!	!	!LO:TX:t=P:problem:kreska pseudotaktowa	!
1C	-ne	1e	e(ſt)	2G/	fi-	1c	.
.	.	.	.	2G/	-des	.	.
*	*	*	*	*	*	*Xlig	*
=8	=8	=8	=8	=8	=8	=8	=8
!	!	!	!	!	!	!LO:TX:t=P:problem: znak kreski taktowej w źródle	!
2r	.	1c	fi-	1A	tu-	1F	.
2.F\	ma-	.	.	.	.	.	.
!	!	!LO:TX:t=P:problem: znak kreski taktowej w źródle	!	!	!	!	!
.	.	1A	-des	2F/	-a	2r	.
*4\right	*	*	*	*	*	*	*
4F\	-gna	.	.	.	.	.	.
!	!	!	!	!LO:TX:t=P:problem: znak kreski taktowej w źródle	!	!	!
2F\	e(ſt)	.	.	2c\	eſt	[2f\	mag-
=9	=9	=9	=9	=9	=9	=9	=9
*	*	*lig	*	*	*	*	*
2D/	fi-	1B-	tu-	2d\	fi-	4f\]	.
!	!	!	!	!	!	!LO:SIC:v:t=custos f	!
.	.	.	.	.	.	4f\	-na
!LO:TX:t=P:problem: znak kreski taktowej w źródle	!	!	!	!	!	!	!
!	!	!	!	!	!	!LO:TX:t=P:problem: znak kreski taktowej w źródle	!
2D/	-des	.	.	2d\	-des	2f\	eſt
1E	tu-	1c	.	2.G/	tu-	2e\	fi-
.	.	.	.	.	.	2e\	-des
.	.	.	.	4F/	.	.	.
!	!	!	!	!LO:TX:t=P:problem: znak kreski taktowej w źródle	!	!	!
*	*	*Xlig	*	*	*	*	*
!!pagebreak:original
=10	=10	=10	=10	=10	=10	=10	=10
!	!	!LO:TX:t=P:problem: znak kreski taktowej w źródle	!	!	!	!	!
*	*	*	*	*	*	*lig	*
2C,/	-a	1c	-a	4E/	.	1g	tu-
.	.	.	.	4D/	.	.	.
2.C/	ma-	.	.	2E/	.	.	.
!	!	!LO:SIC:v:t=custos f	!	!LO:SIC:v:t=custos c	!	!	!
.	.	1e	in-	2C/	-a	1G	.
4C/	-gna	.	.	.	.	.	.
2C/	e(ſt)	.	.	[2c\	mag-	.	.
!LO:TX:t=P:problem: znak kreski taktowej w źródle	!	!	!	!	!	!	!
!LO:SIC:v:t=custos AA	!	!	!	!LO:TX:t=P:problem: znak kreski taktowej w źródle	!	!	!
*	*	*	*	*	*	*Xlig	*
=11	=11	=11	=11	=11	=11	=11	=11
2AA/	fi-	1f	-ter-	4c\]	.	2A/	.
.	.	.	.	4c\	-na	.	.
2AA/	-des	.	.	2c\	e(ſt)	4B-/	.
!	!	!	!	!	!	!LO:TX:t=P:problem: znak kreski taktowej w źródle	!
.	.	.	.	.	.	4c/	.
*	*	*	*	*	*	*lig	*
*	*	*	*	*	*	*col	*
1BB-	tu-	1g	-ce-	2B-\	fi-	1d	.
!	!	!	!	!LO:TX:t=P:problem: znak kreski taktowej w źródle	!	!	!
.	.	.	.	2B-\	-des	.	.
=12	=12	=12	=12	=12	=12	=12	=12
!LO:TX:t=P:problem: znak kreski taktowej w źródle	!	!LO:TX:t=P:problem: znak kreski taktowej w źródle	!	!	!	!	!
1C	-a	1e	-de	1G	tu-	2.c/	.
*	*	*	*	*	*	*Xlig	*
*	*	*	*	*	*	*Xcol	*
.	.	.	.	.	.	4B-/	.
*	*	*lig	*	*	*	*	*
2r	.	1f	pro	1F	-a	4A/	.
.	.	.	.	.	.	4G/	.
!	!	!	!	!	!	!LO:TX:t=P:problem: znak kreski taktowej w źródle	!
2FF/	in-	.	.	.	.	2A/	.
=13	=13	=13	=13	=13	=13	=13	=13
!	!	!LO:TX:t=P:problem: znak kreski taktowej w źródle	!	!	!	!	!
2AA/	-ter-	1e	.	2F/	in-	1c	-a
2.C/	-ce-	.	.	1G	-ter-	.	.
*	*	*Xlig	*	*	*	*	*
*	*	*lig	*	*	*	*	*
.	.	1d	no-	.	.	2r	.
8BB-/	-de	.	.	.	.	.	.
8AA/	(pro)	.	.	.	.	.	.
!LO:TX:t=P:problem: znak kreski taktowej w źródle	!	!	!	!	!	!	!
!	!	!	!	!	!	!LO:TX:t=P:problem: znak kreski taktowej w źródle	!
2BB-/	no-	.	.	2G/	-ce-	2d\	in-
!!linebreak:original
=14	=14	=14	=14	=14	=14	=14	=14
1.C	-bis	1c	.	4G/	-de	2e\	-ter-
.	.	.	.	4G/	(et)	.	.
.	.	.	.	2A/	no-	2.f\	-ce-
*	*	*Xlig	*	*	*	*	*
!	!	!LO:TX:t=P:problem: znak kreski taktowej w źródle	!	!LO:TX:t=P:problem: znak kreski taktowej w źródle	!	!	!
.	.	1c	-bis	1G	-bis,	.	.
.	.	.	.	.	.	8e\L	.
.	.	.	.	.	.	8d\J	.
!	!	!	!	!	!	!LO:TX:t=P:problem: znak kreski taktowej w źródle	!
2C/	ad	.	.	.	.	2e\	-de
=15	=15	=15	=15	=15	=15	=15	=15
!	!	!LO:TX:t=P:problem: znak kreski taktowej w źródle	!	!	!	!	!
2.F\	D(o-	1c	ad	2r	.	2f\	(et)
!	!	!	!	!LO:TX:t=P:problem: znak kreski taktowej w źródle	!	!	!
.	.	.	.	2G/	in-	2c/	no-
4E\	-mi)-	.	.	.	.	.	.
!	!	!	!	!	!	!LO:TX:t=P:problem: znak kreski taktowej w źródle	!
2D/	-num	1d	Do-	2A/	-ter-	1f	-bis
!LO:TX:t=P:problem: znak kreski taktowej w źródle	!	!	!	!	!	!	!
2BB-/	Je-	.	.	[2B-\	-ce-	.	.
=16	=16	=16	=16	=16	=16	=16	=16
1F	-ſum	1c	-mi-	4B-\]	.	2r	.
.	.	.	.	8A/	-de	.	.
.	.	.	.	8G/	.	.	.
!	!	!	!	!LO:TX:t=P:problem: znak kreski taktowej w źródle	!	!	!
.	.	.	.	2A/	(et)	2c/	ad
*	*	*lig	*	*	*	*	*
2r	.	1A	-num	2c\	no-	2.f\	Do-
2D/	ad	.	.	2F/	-bis	.	.
!	!	!	!	!	!	!LO:TX:t=P:problem: znak kreski taktowej w źródle	!
.	.	.	.	.	.	4e\	-mi-
!!pagebreak:original
=17	=17	=17	=17	=17	=17	=17	=17
!	!	!LO:TX:t=P:problem: znak kreski taktowej w źródle	!	!	!	!	!
2.G\	Do-	1B-	.	2.B-\	ad	1d	-num
4F\	-mi-	.	.	4A\	Do-	.	.
*	*	*Xlig	*	*	*	*	*
*	*	*lig	*	*	*	*	*
2E\	-nu(m)	1c	Je-	4G/	-mi-	2g\	Je-
.	.	.	.	8F/L	.	.	.
.	.	.	.	8G/J	.	.	.
!	!	!	!	!LO:TX:t=P:problem: znak kreski taktowej w źródle	!	!	!
[2F\	Je-	.	.	2A/	-num	2f\	-ſum
=18	=18	=18	=18	=18	=18	=18	=18
!	!	!	!	!	!	!LO:TX:t=P:problem: znak kreski taktowej w źródle	!
!	!	!	!	!	!	!LO:SIC:v:t=custos d	!
2F\]	.	1G	.	2r	.	1c	Chri-
2E\	-ſum	.	.	2C/	ad	.	.
!LO:TX:t=P:problem: znak kreski taktowej w źródle	!	!	!	!LO:TX:t=P:problem: znak kreski taktowej w źródle	!	!	!
*	*	*Xlig	*	*	*	*	*
*	*	*lig	*	*	*	*	*
2.D/	Chri-	1A	-ſum	2.F/	Do-	1d	-ſtum
4C/	.	.	.	4E/	-mi-	.	.
=19	=19	=19	=19	=19	=19	=19	=19
!	!	!LO:TX:t=P:problem: znak kreski taktowej w źródle	!	!	!	!	!
2BB-/	.	1G	.	2D/	-nu(m)	2r	.
2C/	.	.	.	2E/	Je-	1c	Vt
!LO:TX:t=P:problem: znak kreski taktowej w źródle	!	!	!	!LO:TX:t=P:problem: znak kreski taktowej w źródle	!	!	!
*	*	*Xlig	*	*	*	*	*
2FF/	-ſtum	1F	Chr(is-	2F/	ſum	.	.
!	!	!	!	!	!	!LO:TX:t=P:problem: znak kreski taktowej w źródle	!
[2F\	Vt	.	.	[2A/	Chri-	2c/	a
=20	=20	=20	=20	=20	=20	=20	=20
!	!	!LO:TX:t=P:problem: znak kreski taktowej w źródle	!	!	!	!	!
2F\]	.	1F	-t)um	4A/]	.	1c	mor-
.	.	.	.	4G/	.	.	.
2F\	a	.	.	4A/	.	.	.
.	.	.	.	4B-\	.	.	.
!	!	!	!	!LO:TX:t=P:problem: znak kreski taktowej w źródle	!	!	!
!LO:TX:t=P:problem: znak kreski taktowej w źródle	!	!	!	!LO:SIC:v:t=custos c	!	!	!
1F	mor-	1A,	Vt	1c	.	2F/	-te
.	.	.	.	.	.	[2f\	ſu-
!!linebreak:original
=21	=21	=21	=21	=21	=21	=21	=21
!LO:SIC:v:t=custos D	!	!	!	!	!	!	!
2BB-/	-te	1B-,	a	1d	-ſtum	4f\]	.
.	.	.	.	.	.	4e\	-bi-
2.D/	Su-	.	.	.	.	4d\	-ta
!	!	!	!	!	!	!LO:TX:t=P:problem: znak kreski taktowej w źródle	!
.	.	.	.	.	.	4e\	.
*	*	*lig	*	*	*	*	*
.	.	1A	mor-	2r	.	4f\	.
4E\	-bi-	.	.	.	.	4g\	.
[2F\	-ta	.	.	[2c\	Vt	4a\	.
!	!	!	!	!	!	!LO:TX:t=P:problem: znak kreski taktowej w źródle	!
.	.	.	.	.	.	4f\	.
=22	=22	=22	=22	=22	=22	=22	=22
2F\]	.	1G	.	2c\]	.	2.g\	.
2E\	ne-	.	.	2c\	a	.	.
.	.	.	.	.	.	8f\L	.
!	!	!	!	!	!	!LO:TX:t=P:problem: znak kreski taktowej w źródle	!
.	.	.	.	.	.	8g\J	.
!	!	!	!	!LO:TX:t=P:problem: znak kreski taktowej w źródle	!	!	!
*lig	*	*Xlig	*	*	*	*	*
!	!	!LO:TX:t=P:problem: znak kreski taktowej w źródle	!	!	!	!	!
1F	-a	1F	-te	1c	mor-	4a\	.
.	.	.	.	.	.	4g\	.
.	.	.	.	.	.	[2f\	.
=23	=23	=23	=23	=23	=23	=23	=23
!LO:TX:t=P:problem: znak kreski taktowej w źródle	!	!	!	!	!	!	!
1C	.	1G	ſu-	2C/	-te	2f\]	.
!	!	!	!	!	!	!LO:TX:t=P:problem: znak kreski taktowej w źródle	!
.	.	.	.	2.c\	ſu-	2e\	.
*Xlig	*	*	*	*	*	*	*
1r	.	1F	-bi-	.	.	2.f\	.
.	.	.	.	4B-\	-bi-	.	.
.	.	.	.	[2A\	-ta	.	.
.	.	.	.	.	.	4e\	.
=24	=24	=24	=24	=24	=24	=24	=24
*	*	*lig	*	*	*	*	*
1r	.	1G	-ta	2A\]	.	2d\	.
!	!	!	!	!LO:TX:t=P:problem: znak kreski taktowej w źródle	!	!	!
.	.	.	.	2G/	.	2d\	ne-
!	!	!	!	!	!	!LO:TX:t=P:problem: znak kreski taktowej w źródle	!
[1D	Vt	1A	.	2.F#X/	.	1d	-a
.	.	.	.	4E/	.	.	.
*	*	*Xlig	*	*	*	*	*
!!pagebreak:original
=25	=25	=25	=25	=25	=25	=25	=25
*	*	*lig	*	*	*	*	*
!	!	!	!	!LO:TX:b:t=P:problem:# below	!	!	!
2D\]	.	1B-	ne-	2F#X/	.	2r	.
2D/	a	.	.	1G	.	1d	Vt
1D	mor-	1A	.	.	.	.	.
!	!	!	!	!	!	!LO:TX:t=P:problem: znak kreski taktowej w źródle	!
.	.	.	.	2F#X/	ne-	2d\	a
!	!	!	!	!LO:TX:b:t=P:problem:# below	!	!	!
*	*	*Xlig	*	*	*	*	*
=26	=26	=26	=26	=26	=26	=26	=26
*	*	*lig	*	*	*	*	*
!	!	!	!	!LO:TX:t=P:problem: znak kreski taktowej w źródle	!	!	!
2GG/	-te	1G	-a	1G	-a	1d	mor-
2.G\	ſu-	.	.	.	.	.	.
!	!	!LO:TX:t=P:problem: znak kreski taktowej w źródle	!	!	!	!	!
.	.	1A	.	1r	.	2D/	-te
4F\	-bi-	.	.	.	.	.	.
!	!	!	!	!	!	!LO:TX:t=P:problem: znak kreski taktowej w źródle	!
[2F\	-ta	.	.	.	.	[2A/	ſu-
*	*	*Xlig	*	*	*	*	*
=27	=27	=27	=27	=27	=27	=27	=27
!	!	!LO:TX:t=P:problem: znak kreski taktowej w źródle	!	!	!	!	!
2F\]	.	1c	et	2r	.	4A/]	.
.	.	.	.	.	.	4B-/	-bi-
!	!	!	!	!LO:TX:t=P:problem: znak kreski taktowej w źródle	!	!	!
!	!	!	!	!	!	!LO:TX:t=P:problem: znak kreski taktowej w źródle	!
2E\	ne-	.	.	2C/	et	2c/	-ta
!LO:TX:t=P:problem: znak kreski taktowej w źródle	!	!LO:TX:t=P:problem: znak kreski taktowej w źródle	!	!	!	!LO:SIC:v:t=custos A	!
1D	-a	1F	a	2D/	a	2A/	ne-
.	.	.	.	[2F/	mor-	[2A/	-a
=28	=28	=28	=28	=28	=28	=28	=28
0r	.	1A	mor-	4F/]	.	2A/]	.
.	.	.	.	4E/	-bo	.	.
!	!	!	!	!LO:TX:t=P:problem: znak kreski taktowej w źródle	!	!	!
!	!	!	!	!	!	!LO:TX:t=P:problem: znak kreski taktowej w źródle	!
.	.	.	.	2D/	pe-	2d\	et
!	!	!LO:TX:t=P:problem: znak kreski taktowej w źródle	!	!	!	!	!
.	.	1c	-bo	2C/	-ſti	2e\	a
.	.	.	.	2c\	fe-	[2g\	mor-
!!linebreak:original
=29	=29	=29	=29	=29	=29	=29	=29
2r	.	1d	pe-	2B-\	-ro	4g\]	.
.	.	.	.	.	.	4f\	-bo
!LO:TX:t=P:problem: znak kreski taktowej w źródle	!	!	!	!	!	!	!
!	!	!	!	!	!	!LO:TX:t=P:problem: znak kreski taktowej w źródle	!
2D/	et	.	.	2A/	.	2f\	pe-
*	*	*lig	*	*	*	*	*
!	!	!	!	!LO:TX:t=P:problem: znak kreski taktowej w źródle	!	!	!
2E-X\	a	1B-	-ſti	1G	.	2e-X\	-ſti
[2G\	mor-	.	.	.	.	4d\	.
!	!	!	!	!	!	!LO:TX:t=P:problem: znak kreski taktowej w źródle	!
.	.	.	.	.	.	4c/	.
=30	=30	=30	=30	=30	=30	=30	=30
4G\]	.	1A	.	2r	.	1.d	.
4F\	-bo	.	.	.	.	.	.
2F\	pe-	.	.	2D/	et	.	.
*	*	*Xlig	*	*	*	*	*
*	*	*lig	*	*	*	*	*
2.D/	-ſti	1B-	fe-	2F/	a	.	.
.	.	.	.	[2B-\	mor-	2d\	fe-
!LO:TX:t=P:problem: znak kreski taktowej w źródle	!	!	!	!	!	!	!
4D/	fe-	.	.	.	.	.	.
=31	=31	=31	=31	=31	=31	=31	=31
2C/	-ro	1c	.	4B-\]	.	2G/	-ro
.	.	.	.	4B-\	-bo	.	.
1F	li-	.	.	2A/	.	4A/	.
!	!	!	!	!	!	!LO:TX:t=P:problem: znak kreski taktowej w źródle	!
.	.	.	.	.	.	4B-/	.
!	!	!	!	!LO:TX:t=P:problem: znak kreski taktowej w źródle	!	!	!
*	*	*Xlig	*	*	*	*	*
!	!	!LO:TX:t=P:problem: znak kreski taktowej w źródle	!	!	!	!	!
.	.	1c	-ro	2.G/	pe-	2c/	.
2E\	-be-	.	.	.	.	2G/	.
.	.	.	.	4G/	-ſti	.	.
=32	=32	=32	=32	=32	=32	=32	=32
!	!	!	!	!	!	!LO:TX:t=P:problem: znak kreski taktowej w źródle	!
1.D	-ra-	1f	li-	2.F/	fe-	1A	.
!	!	!	!	!LO:TX:t=P:problem: znak kreski taktowej w źródle	!	!	!
.	.	.	.	4G/	-ro	.	.
.	.	1e	-be-	4A/	.	1r	.
.	.	.	.	4B-\	.	.	.
!	!	!	!	!LO:TX:t=P:problem: znak kreski taktowej w źródle	!	!	!
!LO:TX:t=P:problem: znak kreski taktowej w źródle	!	!	!	!LO:SIC:v:t=custos B	!	!	!
2C/	-ri	.	.	2c\	.	.	.
!!pagebreak:original
=33	=33	=33	=33	=33	=33	=33	=33
4BB-/	me-	1d	-ra-	2r	.	1.f	li-
4C/	.	.	.	.	.	.	.
4D/	.	.	.	2.B-\	li-	.	.
!LO:SIC:v:t=custos F	!	!	!	!	!	!	!
4E\	.	.	.	.	.	.	.
!	!	!LO:TX:t=P:problem: znak kreski taktowej w źródle	!	!	!	!	!
2F\	.	1c	-ri	.	.	.	.
.	.	.	.	4A\	.	.	.
!	!	!	!	!	!	!LO:TX:t=P:problem: znak kreski taktowej w źródle	!
2C/	-re	.	.	[2G/	-be-	2e\	-be-
=34	=34	=34	=34	=34	=34	=34	=34
*	*	*lig	*	*	*	*	*
1D	a-	1A	me-	2G/]	.	2.d\	-ra-
!	!	!	!	!LO:TX:t=P:problem: znak kreski taktowej w źródle	!	!	!
.	.	.	.	2F#X/	-ra-	.	.
.	.	.	.	.	.	4c/	-ri
2GG/	-mur	1B-	.	1G	-ri	4B-/	me-
.	.	.	.	.	.	4c/	.
[2G\	li-	.	.	.	.	4d\	.
!	!	!	!	!	!	!LO:TX:t=P:problem: znak kreski taktowej w źródle	!
.	.	.	.	.	.	4c/	.
*	*	*Xlig	*	*	*	*	*
=35	=35	=35	=35	=35	=35	=35	=35
2G\]	.	1A	.	2r	.	4d\	.
.	.	.	.	.	.	4e\	.
!LO:TX:t=P:problem: znak kreski taktowej w źródle	!	!	!	!	!	!	!
2F\	-be-	.	.	1c	li-	2f\	.
*	*	*lig	*	*	*	*	*
[1E-X	-ra-	1G	-re-	.	.	2g\	-re-
!	!	!	!	!LO:TX:t=P:problem: znak kreski taktowej w źródle	!	!	!
.	.	.	.	2B-\	-be-	4G/	-a-
!	!	!	!	!	!	!LO:TX:t=P:problem: znak kreski taktowej w źródle	!
.	.	.	.	.	.	4A/	.
=36	=36	=36	=36	=36	=36	=36	=36
2E-\]	.	1F	.	2.B-\	-ra-	4B-/	.
.	.	.	.	.	.	4c/	.
!	!	!	!	!	!	!LO:TX:t=P:problem: znak kreski taktowej w źródle	!
2D/	-ri	.	.	.	.	2d\	.
.	.	.	.	4B-\	-ri	.	.
!	!	!	!	!	!	!LO:SIC:v:t=custos e	!
*	*	*Xlig	*	*	*	*	*
2C/	me-	1G	-a-	2c\	me-	2e-X\	.
2BB-/	-re-	.	.	[2d\	-re-	4d\	.
!	!	!	!	!	!	!LO:TX:t=P:problem: znak kreski taktowej w źródle	!
.	.	.	.	.	.	4e-\	.
!!linebreak:original
=37	=37	=37	=37	=37	=37	=37	=37
*lig	*	*	*	*	*	*	*
1AA	-a-	[0F	-mur.	2d\]	.	2f\	.
.	.	.	.	1c	-a-	2e\	.
1BB-	.	.	.	.	.	1d	.
.	.	.	.	2B-\	-mur	.	.
!	!	!	!	!LO:TX:t=P:problem: znak kreski taktowej w źródle	!	!	!
*Xlig	*	*	*	*	*	*	*
=38	=38	=38	=38	=38	=38	=38	=38
!	!	!	!	!	!	!LO:TX:t=P:problem: znak kreski taktowej w źródle	!
1FF	-mur	0F_	.	1.c	li-	0A	-mur
[1F	li-	.	.	.	.	.	.
.	.	.	.	2B-\	-be-	.	.
=39	=39	=39	=39	=39	=39	=39	=39
2F\]	.	0F_	.	2.A/	-ra-	1.f	li-
!LO:TX:t=P:problem: znak kreski taktowej w źródle	!	!	!	!	!	!	!
2E\	-be-	.	.	.	.	.	.
!	!	!	!	!LO:TX:t=P:problem: znak kreski taktowej w źródle	!	!	!
.	.	.	.	4G/	-ri	.	.
2.D/	-ra-	.	.	2F/	me-	.	.
!	!	!	!	!	!	!LO:TX:t=P:problem: znak kreski taktowej w źródle	!
.	.	.	.	4G/	-re-	2e\	-be-
!	!	!	!	!LO:TX:t=P:problem: znak kreski taktowej w źródle	!	!	!
4C/	-ri	.	.	4A/	.	.	.
=40	=40	=40	=40	=40	=40	=40	=40
2BB-/	me-	0F_	.	2B-\	.	2.d\	-ra-
2FF/	-re-	.	.	2c\	.	.	.
.	.	.	.	.	.	4c/	-ri
2BB-/	-a-	.	.	2d\	.	2B-/	me-
*	*	*	*	*lig	*	*	*
!	!	!	!	!	!	!LO:TX:t=P:problem: znak kreski taktowej w źródle	!
2AA/	.	.	.	[2c\	-a-	2c/	-re-
=41	=41	=41	=41	=41	=41	=41	=41
1BB-	.	0F_	.	2c\]	.	1.d	-a-
.	.	.	.	1B-	.	.	.
[1F	-mur.	.	.	.	.	.	.
*	*	*	*	*Xlig	*	*	*
.	.	.	.	2A/	.	4c/	.
.	.	.	.	.	.	4B-/	.
!!pagebreak:original
=42	=42	=42	=42	=42	=42	=42	=42
0F]	.	0F]	.	0A	-mur.	0c	-mur.
==	==	==	==	==	==	==	==
*-	*-	*-	*-	*-	*-	*-	*-
!!!system-decoration: [(s1,s2,s3,s4)]
!!!ENC: Filip Voros
!!!END: 2022-01-05
